assets/icons/game-controller.svg

<svg height="24" width="24" xmlns="http://www.w3.org/2000/svg"><path style="fill:gray;stroke-width:2;stroke-linecap:round;fill-opacity:1" d="M6.5 9A4.5 4.5 0 0 0 2 13.5 4.5 4.5 0 0 0 6.5 18a4.5 4.5 0 0 0 2.813-1h5.374a4.5 4.5 0 0 0 2.813 1 4.5 4.5 0 0 0 4.5-4.5A4.5 4.5 0 0 0 17.5 9h-11zm0 1h11a3.5 3.5 0 0 1 3.5 3.5 3.5 3.5 0 0 1-3.5 3.5 3.5 3.5 0 0 1-2.445-1H8.946A3.5 3.5 0 0 1 6.5 17 3.5 3.5 0 0 1 3 13.5 3.5 3.5 0 0 1 6.5 10z"/><path style="fill:gray;stroke-width:2;stroke-linecap:butt;fill-opacity:1" d="M6 12h1v3H6z"/><path style="fill:gray;stroke-width:2;stroke-linecap:butt;fill-opacity:1" d="M5 13h3v1H5z"/><circle style="fill:gray;stroke-width:2;stroke-linecap:butt;fill-opacity:1" cx="18.5" cy="13.5" r=".5"/><circle style="fill:gray;stroke-width:2;stroke-linecap:butt;fill-opacity:1" cx="17.5" cy="12.5" r=".5"/><circle style="fill:gray;stroke-width:2;stroke-linecap:butt;fill-opacity:1" cx="16.5" cy="13.5" r=".5"/><circle style="fill:gray;stroke-width:2;stroke-linecap:butt;fill-opacity:1" cx="17.5" cy="14.5" r=".5"/><path style="fill:gray;stroke-width:2;stroke-linecap:butt;fill-opacity:1" d="M11 6h2v3h-2zm0-2h2v1h-2zm0-2h2v1h-2z"/><circle style="fill:gray;stroke-width:2;stroke-linecap:butt;fill-opacity:1" cx="10.5" cy="12.5" r=".5"/><circle style="fill:gray;stroke-width:2;stroke-linecap:butt;fill-opacity:1" cx="13.5" cy="12.5" r=".5"/></svg>

<?xml version="1.0" encoding="UTF-8" standalone="no"?>
<svg viewBox="0 0 24 24" height="24" width="24" version="1.1" id="svg4" sodipodi:docname="gaming.svg" inkscape:version="1.1 (ce6663b3b7, 2021-05-25)"
   xmlns:inkscape="http://www.inkscape.org/namespaces/inkscape"
   xmlns:sodipodi="http://sodipodi.sourceforge.net/DTD/sodipodi-0.dtd"
   xmlns="http://www.w3.org/2000/svg"
   xmlns:svg="http://www.w3.org/2000/svg">
   <defs id="defs8" />
   <sodipodi:namedview id="namedview6" pagecolor="#ffffff" bordercolor="#666666" borderopacity="1.0" inkscape:pageshadow="2" inkscape:pageopacity="0.0" inkscape:pagecheckerboard="0" showgrid="true" width="24px" inkscape:zoom="45.254834" inkscape:cx="13.180912" inkscape:cy="12.904699" inkscape:window-width="1920" inkscape:window-height="1043" inkscape:window-x="1920" inkscape:window-y="0" inkscape:window-maximized="1" inkscape:current-layer="svg4">
      <inkscape:grid type="xygrid" id="grid825" />
      <inkscape:grid type="xygrid" id="grid876" dotted="true" spacingx="0.5" spacingy="0.5" empspacing="0" />
   </sodipodi:namedview>
   <path id="path844" style="fill:#808080;fill-rule:evenodd;stroke-width:2;stroke-linecap:round;fill-opacity:1" d="M 6.5 9 A 4.5 4.5 0 0 0 2 13.5 A 4.5 4.5 0 0 0 6.5 18 A 4.5 4.5 0 0 0 9.3125 17 L 14.6875 17 A 4.5 4.5 0 0 0 17.5 18 A 4.5 4.5 0 0 0 22 13.5 A 4.5 4.5 0 0 0 17.5 9 L 6.5 9 z M 6.5 10 L 14.685547 10 L 17.5 10 A 3.5 3.5 0 0 1 21 13.5 A 3.5 3.5 0 0 1 17.5 17 A 3.5 3.5 0 0 1 15.054688 16 L 15 16 L 13.763672 16 L 10.236328 16 L 8.9453125 16 A 3.5 3.5 0 0 1 6.5 17 A 3.5 3.5 0 0 1 3 13.5 A 3.5 3.5 0 0 1 6.5 10 z " />
   <rect style="fill:#808080;fill-rule:evenodd;stroke-width:2;stroke-linecap:butt;fill-opacity:1" id="rect1726" width="1" height="3" x="6" y="12" />
   <rect style="fill:#808080;fill-rule:evenodd;stroke-width:2;stroke-linecap:butt;fill-opacity:1" id="rect1728" width="3" height="1" x="5" y="13" />
   <circle style="fill:#808080;fill-rule:evenodd;stroke-width:2;stroke-linecap:butt;fill-opacity:1" id="path1832" cx="18.5" cy="13.5" r="0.5" />
   <circle style="fill:#808080;fill-rule:evenodd;stroke-width:2;stroke-linecap:butt;fill-opacity:1" id="path1834" cx="17.5" cy="12.5" r="0.5" />
   <circle style="fill:#808080;fill-rule:evenodd;stroke-width:2;stroke-linecap:butt;fill-opacity:1" id="path1836" cx="16.5" cy="13.5" r="0.5" />
   <circle style="fill:#808080;fill-rule:evenodd;stroke-width:2;stroke-linecap:butt;fill-opacity:1" id="path1838" cx="17.5" cy="14.5" r="0.5" />
   <rect style="fill:#808080;fill-rule:evenodd;stroke-width:2;stroke-linecap:butt;fill-opacity:1" id="rect1942" width="2" height="3" x="11" y="6" />
   <rect style="fill:#808080;fill-rule:evenodd;stroke-width:2;stroke-linecap:butt;fill-opacity:1" id="rect1944" width="2" height="1" x="11" y="4" />
   <rect style="fill:#808080;fill-rule:evenodd;stroke-width:2;stroke-linecap:butt;fill-opacity:1" id="rect2048" width="2" height="1" x="11" y="2" />
   <circle style="fill:#808080;fill-rule:evenodd;stroke-width:2;stroke-linecap:butt;fill-opacity:1" id="path2232" cx="10.5" cy="12.5" r="0.5" />
   <circle style="fill:#808080;fill-rule:evenodd;stroke-width:2;stroke-linecap:butt;fill-opacity:1" id="path2234" cx="13.5" cy="12.5" r="0.5" />
</svg>
